svg/furkot/mapbox-maki/basketball.svg

<svg viewBox="0 0 512 512" xmlns="http://www.w3.org/2000/svg"><path d="m256.49 98.537c0 32.652-26.472 59.123-59.123 59.123s-59.122-26.471-59.122-59.123c0-32.653 26.471-59.122 59.122-59.122s59.123 26.471 59.123 59.122zm197.073-98.537c-21.768 0-39.415 17.645-39.415 39.415 0 21.769 17.647 39.415 39.415 39.415s39.415-17.646 39.415-39.415c0-21.77-17.646-39.415-39.415-39.415zm-83.164 480.468-113.909-142.288v-121.399h19.706c6.578-.071 12.668-3.488 16.16-9.064l76.465-95.384 2.365-3.154c2.212-3.117 3.445-6.822 3.547-10.642-.149-10.882-9.097-19.581-19.978-19.431-5.259.07-10.269 2.243-13.918 6.03l-74.099 92.231h-148.201c-5.392.071-10.523 2.348-14.19 6.306l-78.829 100.114c-3.158 3.18-5.109 7.362-5.518 11.824 0 10.884 8.825 19.709 19.707 19.709 6.579-.071 12.668-3.489 16.161-9.066l72.129-89.473h10.248v121.399l-113.909 142.288c-2.727 3.346-4.254 7.507-4.336 11.824 0 10.883 8.825 19.708 19.707 19.708 6.579-.071 12.668-3.489 16.161-9.066l118.243-148.594h45.327l118.245 148.594c3.492 5.577 9.582 8.995 16.162 9.066 10.881 0 19.706-8.825 19.706-19.708-.082-4.317-1.608-8.478-4.336-11.824z"/></svg>

<svg viewBox="0 0 512 512" xmlns="http://www.w3.org/2000/svg"><path d="M 256.49 98.537 C 256.49 131.189 230.018 157.66 197.367 157.66 C 164.716 157.66 138.245 131.189 138.245 98.537 C 138.245 65.884 164.716 39.415 197.367 39.415 C 230.018 39.415 256.49 65.886 256.49 98.537 Z M 453.563 0 C 431.795 0 414.148 17.645 414.148 39.415 C 414.148 61.184 431.795 78.83 453.563 78.83 C 475.331 78.83 492.978 61.184 492.978 39.415 C 492.978 17.645 475.332 0 453.563 0 Z M 370.399 480.468 L 256.49 338.18 L 256.49 216.781 L 276.196 216.781 C 282.774 216.71 288.864 213.293 292.356 207.717 L 292.356 207.717 L 368.821 112.333 L 368.821 112.333 L 371.186 109.179 L 371.186 109.179 C 373.398 106.062 374.631 102.357 374.733 98.537 C 374.584 87.655 365.636 78.956 354.755 79.106 C 349.496 79.176 344.486 81.349 340.837 85.136 L 340.837 85.136 L 266.738 177.367 L 118.537 177.367 C 113.145 177.438 108.014 179.715 104.347 183.673 L 104.347 183.673 L 25.518 283.787 L 25.518 283.787 C 22.36 286.967 20.409 291.149 20 295.611 C 20 306.495 28.825 315.32 39.707 315.32 C 46.286 315.249 52.375 311.831 55.868 306.254 L 55.868 306.254 L 127.997 216.781 L 138.245 216.781 L 138.245 338.18 L 24.336 480.468 L 24.336 480.468 C 21.609 483.814 20.082 487.975 20 492.292 C 20 503.175 28.825 512 39.707 512 C 46.286 511.929 52.375 508.511 55.868 502.934 L 55.868 502.934 L 174.111 354.34 L 219.438 354.34 L 337.683 502.934 L 337.683 502.934 C 341.175 508.511 347.265 511.929 353.845 512 C 364.726 512 373.551 503.175 373.551 492.292 C 373.469 487.975 371.943 483.814 369.215 480.468 L 369.215 480.468 L 370.399 480.468 Z"/></svg>
